X:1
T:Title
%%score { ( 1 3 ) | 2 }
L:1/8
M:4/4
K:F
V:1 treble nm="Grand Piano"
V:3 treble 
V:2 treble 
V:1
 z4 z[Q:1/4=100] AAB | c2 c2 =B2 c2 | d=B c2- cFFG | A2 A2 _A2 =A2 | BF A2- AAGA | %5
 B2 [Ac]2 [Bd]2 [Be]2 | [Bd]>[Ac] [Ac]2- [Ac][Ac][Ac][_Ad] | e2 e2 e2 d2 | %8
[M:5/8] [CEc]-[CEc]- [CEc]3 |[M:3/8] cd>[D_A=B] |[M:4/4] [Ac]2 [Ac]4 z2 | z z/ A,/ C2 Cdd[FBd] | %12
 z4 [DG]2 [FG]2 | [CEG]4- [CEG]c d>[D_A=B] | [Ac]2 [Ac]4 z2 | %15
[M:17/16] z/ z/ z [Bd]/-[Bd]/-[Bd]/-[Bd]-<[Bd] z/ z/ z/ z/ z | %16
[M:4/4] [FAc]2 [CFA]2 [CEB]2 [B,CE]2 |[M:5/8] [A,CF]-[A,CF]- [A,CF]3 |] %18
V:2
 z4 z [F,CF][F,CF][G,A,F] | [F,A,F]2 [F,A,F]2[K:bass] [F,_A,F]2 [F,=A,F]2 | %2
 [F,B,F][F,_A,F] [F,=A,F]2- [F,A,F][A,C][A,C][G,CE] | [F,CF]2 [F,CF]2 [F,=B,F]2 [F,CF]2 | %4
 [F,DF][F,^C][K:treble] [F,=CF]2- [F,CF][CF][B,CE][A,CF] | [G,CG]2[K:bass] [F,C]2 [E,C]2 [C,C]2 | %6
 [F,C]>[F,C] [F,C]2- [F,C][F,C][F,C][F,C] | [G,CG]2 [G,CG]2[K:bass] [G,,=B,G]2 [G,,B,F]2 | %8
[M:5/8] C,-C,- C,3 |[M:3/8][K:treble] AB>[K:bass]F, |[M:4/4] F,>F, F,2 F,[K:treble]F D>[K:bass]F, | %11
 F,>F, F,2 F,[K:treble]BB[K:bass]F, | F,2 F,2 G,G,G,G, | C,4- C,[K:treble]A B>[K:bass]F, | %14
 F,>F, F,2 F,[K:treble]A d>[K:bass][F,A,] | %15
[M:17/16] [B,,B,]>[B,,B,][B,,F,]-<[B,,F,]B,,3/2B,,B,,=B,, |[M:4/4] C,2 C,2 C,2 C,2 | %17
[M:5/8] F,-F,- F,3 |] %18
V:3
 x8 | x8 | x8 | x8 | x8 | x8 | x8 | x8 |[M:5/8] x5 |[M:3/8] x3 |[M:4/4] C>C C2 CA B>[B,^CF] | %11
 [CA]2 [FA]4 z2 | [FAc]2 [CFA]2 =B,B,B,B, | x8 | C>C C2 Cf f>[ce] | %15
[M:17/16] [ce]-<[ce] z/ z/ z F,3/2[FBd][FAd][F_Ad] |[M:4/4] x8 |[M:5/8] x5 |] %18

